X:11
T: WAS GRAEMST DU DICH
N: B0499
O: Europa, Mitteleuropa, Deutschland, Wetzlar, Hellertshausen
R: Abschieds - Lied
M: 4/4
L: 1/16
K: C
G2A3G | E6G2G2E2A2E2 | G4F4z2
F2d2c2 | B6A2G3DA2G2 | E8z2
G2c2B2 | A6A2A2A2d2c2 | c4B4z2
G2G2c2 | B6A2G2F2A2G2 | E8z2

@@@ Tune index: 2229
